X:147
T:To the Ladies
R:jig
H:Played in G or in A
D:Kevin Burke: Up Close
Z:id:hn-jig-135
M:6/8
L:1/8
K:A
|a|:ecA BAF|AFE EFA|Bdc BAB|cBB B2a|\
ecA BAF|AFE EFA|Bdc BAB|[1 cAA A2f:|[2 cAA A2B||
cee dff|cee ecA|cee a2f|ecA B2A|\
cee dff|cee ecA|~c3 BAB|[1 cAA A2B:|[2 cAA A2||
